X:1534
T:Mullingar Races
R:reel
N:"collected from McFadden"
B:"O'Neill's Dance Music of Ireland, 1534"
T: coi.mleanga .muilleann na .gara.d.
Z:transcribed by John B. Walsh, walsh@math.ubc.ca 8/23/96
M:C|
L:1/8
K:D
A,2|D2(FD) EA,A,E|DEFA Bcde|((3fga) ec dcdA|((3Bcd) AF EGFE|
DEFD EA,A,E|DEFA Bcde|((3fga) ec dBAG|FGEF D2||
((3ABc)|d2 (fd) adfb|afdf edBc|d2(fd) adfd|Beed egfe|
d2 (fd) adfb|afdf edBc|dgfe dBAG|FGEF D2||


